X:16
T:Dumbarton Castle
M:4/4
L:1/8
Q:128
K:A
AE/A3/A3/B/c3/B/A3/B/c/e3/e3/f/e3|AE/A3/A3/B/c3/B/A3/E/F/B3/B3/c/B3|A
W: A C#m A Bm E7
E/A3/A3/B/c3/B/A3/B/c/e3/e3/f/e3|ea3/g/f3/e/(3fed(3cBAF/B3/B3/c/B3|d
W: A C#m F#m D Bm E
c/e3/e3/f/a3/e/c3/A/c/e3/e3/f/e3|dc/e3/e3/f/a/g/f/e/d/c/|B/A/F/B3/B3/c/B3|d
W: A A A Bm E7
c/e3/e3/f/a3/e/c3/A/c/e3/e3/f/e3|ea3/g/f3/e/a/g/f/e/d/c/|B/A/F/B3/G/e3/A3|z
W: A C#m F#m D Bm E7 A
